P2
32 32
255
230 224 221 222 226 231 236 240 242 239 233 226 221 220 226 237 251 255 255 255 255 255 255 255 255 255 255 255 255 255 255 255
216 209 205 204 206 210 214 218 219 216 210 203 197 197 203 215 231 245 255 255 255 255 255 255 255 255 255 255 255 255 255 255
202 194 188 185 184 187 190 193 195 193 188 181 177 178 185 197 212 226 236 242 247 252 255 255 255 255 255 255 255 255 255 255
188 178 170 165 162 163 165 168 170 169 166 162 160 162 169 181 195 207 216 222 228 234 242 253 255 255 255 255 255 255 255 255
172 161 152 145 141 140 141 144 146 147 146 145 145 148 156 166 178 189 198 204 211 218 228 239 252 255 255 255 255 255 255 255
154 143 133 126 121 119 120 122 125 127 128 128 131 135 142 152 162 172 180 188 196 205 216 228 240 254 255 255 255 255 255 255
138 126 116 108 104 102 103 104 107 109 111 114 117 122 129 138 147 156 164 173 183 193 205 217 230 244 255 255 255 255 255 255
123 111 101 94 90 88 88 89 91 94 97 100 104 109 116 124 132 140 149 159 169 181 194 207 221 236 252 255 255 255 255 255
111 99 90 83 79 76 76 77 79 81 84 87 92 97 103 110 118 126 135 145 157 169 183 197 212 228 244 255 255 255 255 255
103 91 82 75 70 66 65 65 67 69 71 75 79 84 90 96 104 113 123 133 145 158 173 188 204 220 238 255 255 255 255 255
98 85 75 67 61 57 54 54 54 56 58 62 66 71 77 84 92 101 111 123 135 149 164 180 196 214 233 252 255 255 255 255
94 81 70 60 53 47 43 41 41 42 44 48 53 58 65 72 81 91 102 114 127 141 157 174 191 210 229 249 255 255 255 255
90 76 63 53 44 37 31 28 27 27 29 34 40 47 54 63 72 82 94 107 121 137 153 171 189 208 227 247 255 255 255 255
85 70 57 46 35 27 20 15 13 13 16 21 28 37 46 55 65 76 89 102 118 134 152 171 189 208 227 247 255 255 255 255
81 65 51 39 28 19 11 5 2 2 5 11 19 29 39 50 61 73 86 100 116 134 153 172 191 210 228 247 255 255 255 255
78 62 48 34 23 13 5 0 0 0 0 5 14 24 35 47 59 72 86 100 116 134 153 173 192 212 230 249 255 255 255 255
79 62 47 33 22 12 4 0 0 0 0 4 12 22 34 46 59 73 87 101 117 134 152 172 192 213 232 251 255 255 255 255
82 65 49 35 24 15 8 3 0 0 2 7 15 24 35 48 61 74 88 102 117 133 150 170 191 213 234 254 255 255 255 255
87 70 54 40 29 21 15 10 8 8 10 15 21 30 40 52 64 76 89 102 116 131 148 167 189 212 235 255 255 255 255 255
92 76 60 47 37 29 24 21 20 20 22 26 31 38 47 58 68 79 90 102 115 130 147 166 189 212 235 255 255 255 255 255
97 82 68 55 46 40 36 34 34 34 36 39 43 49 57 66 75 84 93 103 116 130 148 168 190 214 236 255 255 255 255 255
103 89 76 64 56 51 49 48 48 49 50 52 55 60 67 75 83 91 99 108 119 134 151 171 194 216 237 255 255 255 255 255
110 97 85 75 68 64 62 62 63 63 63 64 67 72 78 86 94 101 108 116 127 140 157 177 199 221 240 255 255 255 255 255
118 107 96 87 81 78 78 78 77 77 76 77 79 84 91 99 107 114 121 128 138 151 167 186 207 227 245 255 255 255 255 255
128 117 108 101 97 95 94 94 93 92 91 91 93 98 105 114 122 130 137 144 153 165 180 198 217 236 253 255 255 255 255 255
139 130 122 117 114 113 113 112 111 109 107 107 110 116 123 132 140 147 154 162 170 181 196 212 231 248 255 255 255 255 255 255
151 143 137 133 132 132 133 132 130 128 127 128 131 137 145 152 160 167 174 181 189 200 213 230 247 255 255 255 255 255 255 255
164 156 151 150 150 152 153 153 152 150 149 151 155 161 167 174 181 187 193 200 208 219 233 248 255 255 255 255 255 255 255 255
178 170 167 166 168 171 174 175 174 173 173 174 177 183 189 195 202 208 214 220 228 239 252 255 255 255 255 255 255 255 255 255
192 185 183 184 187 191 195 197 197 197 196 196 197 201 207 213 220 227 234 241 249 255 255 255 255 255 255 255 255 255 255 255
209 202 200 202 206 211 216 219 220 219 217 214 213 215 220 228 237 246 254 255 255 255 255 255 255 255 255 255 255 255 255 255
228 222 220 221 226 231 237 241 242 240 236 231 227 227 232 242 253 255 255 255 255 255 255 255 255 255 255 255 255 255 255 255
