P2
32 32
255
0 0 0 0 0 0 0 0 0 0 0 0 0 0 0 0 0 0 0 0 0 0 0 0 0 0 0 0 0 0 0 0
0 0 0 0 0 0 0 0 0 0 0 0 0 0 0 0 0 0 0 0 0 0 0 0 0 0 0 0 0 0 0 0
0 0 0 0 0 0 0 0 0 0 0 0 0 0 0 0 0 0 0 0 0 0 0 0 0 0 0 0 0 0 0 0
0 0 0 0 0 0 0 0 0 0 0 0 0 0 0 0 0 0 0 0 0 0 0 0 0 0 0 0 0 0 0 0
0 0 0 0 0 0 0 0 0 0 0 0 0 0 0 0 0 0 0 0 0 0 0 0 0 0 0 0 0 0 0 0
0 0 0 0 0 0 0 0 0 0 0 0 0 0 0 0 0 0 0 0 0 0 0 0 0 0 0 0 0 0 0 0
0 0 0 0 0 0 0 0 0 0 0 0 0 0 0 0 0 0 0 0 0 0 0 0 0 0 0 0 0 0 0 0
0 0 0 0 0 0 0 0 0 0 0 0 0 0 0 0 0 0 0 0 0 0 0 0 0 0 0 0 0 0 0 0
0 0 0 0 0 0 0 0 0 0 0 0 0 0 0 0 0 0 0 0 0 0 0 0 0 0 0 0 0 0 0 0
0 0 0 0 0 104 112 111 103 92 0 0 0 0 0 0 0 0 0 0 0 0 0 0 0 0 0 0 0 0 0 0
0 0 0 98 133 159 173 178 174 164 149 130 106 0 0 0 0 0 0 0 0 0 0 0 0 0 0 0 0 0 0 0
0 0 0 138 182 217 241 253 255 248 233 211 183 150 113 0 0 0 0 0 0 0 0 0 0 0 0 0 0 0 0 0
0 0 120 180 234 231 195 172 162 166 183 211 249 219 173 126 0 0 0 0 0 0 0 0 0 0 0 0 0 0 0 0
0 0 157 226 222 165 116 0 0 0 0 122 173 230 225 168 110 0 0 0 0 0 0 0 0 0 0 0 0 0 0 0
0 110 191 244 172 105 0 0 0 0 0 0 109 179 247 198 133 0 0 0 0 0 0 0 0 0 0 0 0 0 0 0
0 128 214 216 138 0 0 0 0 0 0 0 0 145 222 215 143 0 0 0 0 0 0 0 0 0 0 0 0 0 0 0
0 129 219 207 127 0 0 0 0 0 0 0 0 133 212 220 144 0 0 0 0 0 0 0 0 0 0 0 0 0 0 0
0 113 205 220 143 0 0 0 0 0 0 0 0 147 222 212 136 0 0 0 0 0 0 0 0 0 0 0 0 0 0 0
0 0 176 251 179 121 0 0 0 0 0 0 126 185 251 189 119 0 0 0 0 0 0 0 0 0 0 0 0 0 0 0
0 0 139 218 229 181 148 126 115 117 131 157 194 241 214 154 93 0 0 0 0 0 0 0 0 0 0 0 0 0 0 0
0 0 97 169 225 248 226 214 211 214 225 242 242 205 159 108 0 0 0 0 0 0 0 0 0 0 0 0 0 0 0 0
0 0 0 115 163 193 207 211 210 206 200 189 169 139 99 0 0 0 0 0 0 0 0 0 0 0 0 0 0 0 0 0
0 0 0 0 96 118 126 127 125 123 122 116 101 0 0 0 0 0 0 0 0 0 0 0 0 0 0 0 0 0 0 0
0 0 0 0 0 0 0 0 0 0 0 0 0 0 0 0 0 0 0 0 0 0 0 0 0 0 0 0 0 0 0 0
0 0 0 0 0 0 0 0 0 0 0 0 0 0 0 0 0 0 0 0 0 0 0 0 0 0 0 0 0 0 0 0
0 0 0 0 0 0 0 0 0 0 0 0 0 0 0 0 0 0 0 0 0 0 0 0 0 0 0 0 0 0 0 0
0 0 0 0 0 0 0 0 0 0 0 0 0 0 0 0 0 0 0 0 0 0 0 0 0 0 0 0 0 0 0 0
0 0 0 0 0 0 0 0 0 0 0 0 0 0 0 0 0 0 0 0 0 0 0 0 0 0 0 0 0 0 0 0
0 0 0 0 0 0 0 0 0 0 0 0 0 0 0 0 0 0 0 0 0 0 0 0 0 0 0 0 0 0 0 0
0 0 0 0 0 0 0 0 0 0 0 0 0 0 0 0 0 0 0 0 0 0 0 0 0 0 0 0 0 0 0 0
0 0 0 0 0 0 0 0 0 0 0 0 0 0 0 0 0 0 0 0 0 0 0 0 0 0 0 0 0 0 0 0
0 0 0 0 0 0 0 0 0 0 0 0 0 0 0 0 0 0 0 0 0 0 0 0 0 0 0 0 0 0 0 0
