P2
32 32
255
0 0 0 0 0 0 0 0 0 0 0 0 0 0 0 0 0 0 0 0 0 0 0 0 0 0 0 0 0 0 0 0
0 0 0 0 0 0 0 0 0 0 0 0 0 0 0 0 0 0 0 0 0 0 0 0 0 0 0 0 0 0 0 0
0 0 0 0 0 0 0 0 0 0 0 0 0 0 0 0 0 0 0 0 0 0 0 0 0 0 0 0 0 0 0 0
0 0 0 0 0 0 0 0 0 0 0 0 0 0 0 0 0 0 0 0 0 0 0 0 0 0 0 0 0 0 0 0
0 0 0 0 0 0 0 0 0 0 0 0 0 0 0 0 0 0 0 0 0 0 0 0 0 0 0 0 0 0 0 0
0 0 0 0 0 0 0 0 0 0 0 0 0 0 0 0 0 0 0 0 0 0 0 0 0 0 0 0 0 0 0 0
0 0 0 0 0 15 15 15 15 15 0 0 0 0 0 0 0 0 0 0 0 0 0 0 0 0 0 0 0 0 0 0
0 0 0 15 15 30 30 30 30 30 15 15 15 0 0 0 0 0 0 0 0 0 0 0 0 0 0 0 0 0 0 0
0 0 15 30 30 45 45 45 45 45 30 30 30 15 15 0 0 0 0 0 0 0 0 0 0 0 0 0 0 0 0 0
0 15 30 45 45 0 0 0 0 0 45 45 45 30 30 15 0 0 0 0 0 0 0 0 0 0 0 0 0 0 0 0
15 30 45 0 0 0 0 0 0 0 0 0 0 45 45 30 15 0 0 0 0 0 0 0 0 0 0 0 0 0 0 0
15 30 45 0 0 0 0 0 0 0 0 0 0 0 0 45 30 15 0 0 0 0 0 0 0 0 0 0 0 0 0 0
30 45 0 0 0 0 0 0 0 0 0 0 0 0 0 0 45 30 15 0 0 0 0 0 0 0 0 0 0 0 0 0
30 45 0 0 0 0 0 45 45 45 45 0 0 0 0 0 0 45 30 15 0 0 0 0 0 0 0 0 0 0 0 0
45 0 0 0 0 0 45 30 30 30 30 45 0 0 0 0 0 45 30 15 0 0 0 0 0 0 0 0 0 0 0 0
45 0 0 0 0 45 30 15 238 244 176 30 45 0 0 0 0 45 30 15 0 0 0 0 0 0 0 0 0 0 0 0
45 0 0 0 0 45 30 0 249 255 187 30 45 0 0 0 0 45 30 15 0 0 0 0 0 0 0 0 0 0 0 0
45 0 0 0 0 45 30 30 30 30 30 30 45 0 0 0 0 45 30 15 0 0 0 0 0 0 0 0 0 0 0 0
30 45 0 0 0 0 45 45 45 45 45 45 0 0 0 0 0 45 30 15 0 0 0 0 0 0 0 0 0 0 0 0
30 45 0 0 0 0 0 0 0 0 0 0 0 0 0 0 0 45 30 15 0 0 0 0 0 0 0 0 0 0 0 0
30 45 0 0 0 0 0 0 0 0 0 0 0 0 0 0 45 30 15 0 0 0 0 0 0 0 0 0 0 0 0 0
15 30 45 0 0 0 0 0 0 0 0 0 0 0 0 45 30 15 0 0 0 0 0 0 0 0 0 0 0 0 0 0
0 15 30 45 0 0 0 0 0 0 0 0 0 45 45 30 15 0 0 0 0 0 0 0 0 0 0 0 0 0 0 0
0 0 15 30 45 45 45 45 45 45 45 45 45 30 30 15 0 0 0 0 0 0 0 0 0 0 0 0 0 0 0 0
0 0 0 15 30 30 30 30 30 30 30 30 30 15 15 0 0 0 0 0 0 0 0 0 0 0 0 0 0 0 0 0
0 0 0 0 15 15 15 15 15 15 15 15 15 0 0 0 0 0 0 0 0 0 0 0 0 0 0 0 0 0 0 0
0 0 0 0 0 0 0 0 0 0 0 0 0 0 0 0 0 0 0 0 0 0 0 0 0 0 0 0 0 0 0 0
0 0 0 0 0 0 0 0 0 0 0 0 0 0 0 0 0 0 0 0 0 0 0 0 0 0 0 0 0 0 0 0
0 0 0 0 0 0 0 0 0 0 0 0 0 0 0 0 0 0 0 0 0 0 0 0 0 0 0 0 0 0 0 0
0 0 0 0 0 0 0 0 0 0 0 0 0 0 0 0 0 0 0 0 0 0 0 0 0 0 0 0 0 0 0 0
0 0 0 0 0 0 0 0 0 0 0 0 0 0 0 0 0 0 0 0 0 0 0 0 0 0 0 0 0 0 0 0
0 0 0 0 0 0 0 0 0 0 0 0 0 0 0 0 0 0 0 0 0 0 0 0 0 0 0 0 0 0 0 0
