P2
32 32
255
237 232 230 231 234 237 241 244 245 243 239 234 230 229 233 242 252 255 255 255 255 255 255 255 255 255 255 255 255 255 255 255
226 221 218 217 218 221 225 227 228 226 222 216 212 211 216 226 237 248 255 255 255 255 255 255 255 255 255 255 255 255 255 255
216 209 205 202 202 203 206 209 210 208 204 199 196 196 202 212 223 233 241 246 249 253 255 255 255 255 255 255 255 255 255 255
204 197 191 186 184 185 187 189 190 190 187 184 182 184 190 199 210 219 226 231 235 239 246 254 255 255 255 255 255 255 255 255
192 183 176 170 167 166 167 169 171 172 171 170 170 173 179 187 197 205 212 217 222 228 235 243 253 255 255 255 255 255 255 255
178 168 160 154 150 148 149 151 153 155 155 156 158 162 168 176 184 192 199 205 211 218 226 235 244 254 255 255 255 255 255 255
164 154 145 139 135 133 133 135 137 139 141 143 146 151 157 164 171 179 186 193 200 209 218 227 237 247 255 255 255 255 255 255
151 141 132 126 122 120 120 121 123 126 128 131 135 140 145 152 159 166 174 181 190 199 209 220 230 241 253 255 255 255 255 255
141 130 122 116 111 109 109 110 111 113 116 119 123 128 134 140 147 154 162 170 180 190 201 212 223 235 247 255 255 255 255 255
134 123 114 107 103 99 98 98 100 102 104 108 112 116 122 128 135 143 151 160 170 181 192 204 217 229 242 255 255 255 255 255
129 118 108 100 94 90 87 86 87 89 91 95 99 104 110 116 124 132 141 151 162 173 185 198 211 225 239 253 255 255 255 255
126 113 103 93 86 79 75 73 73 74 77 80 86 91 98 105 113 123 133 143 155 167 180 193 207 221 236 250 255 255 255 255
122 108 97 86 76 68 62 58 56 57 60 65 71 79 87 96 105 115 125 137 150 163 177 191 205 220 234 249 255 255 255 255
118 103 90 78 67 57 48 41 38 38 42 49 58 68 78 88 98 109 121 133 147 161 176 191 206 220 234 249 255 255 255 255
114 98 84 71 58 46 35 26 19 19 25 35 47 59 71 83 94 106 118 131 146 161 176 192 207 221 235 249 255 255 255 255
111 95 80 66 52 39 26 14 3 2 12 25 39 53 67 80 92 105 118 131 146 161 177 192 208 223 237 250 255 255 255 255
111 95 79 64 50 37 24 12 1 0 11 23 37 51 65 79 92 106 119 132 146 161 176 192 208 224 238 252 255 255 255 255
114 98 82 66 53 40 30 21 14 14 20 29 41 53 67 80 94 107 120 133 146 160 174 190 207 224 240 254 255 255 255 255
119 103 87 72 59 49 40 34 31 31 34 41 50 60 72 84 97 109 121 133 145 158 172 188 206 223 240 255 255 255 255 255
124 109 93 79 68 59 54 50 48 48 51 55 62 70 80 91 101 112 122 133 144 157 171 188 205 223 241 255 255 255 255 255
129 115 101 88 78 71 67 65 65 65 67 70 75 82 90 99 108 116 125 134 145 158 172 189 206 224 241 255 255 255 255 255
134 121 109 97 89 84 81 81 81 81 82 84 88 93 100 108 116 123 130 138 148 161 175 192 209 226 242 255 255 255 255 255
140 129 118 108 101 97 95 95 96 96 96 97 100 105 111 119 126 132 138 146 155 166 180 196 213 230 244 255 255 255 255 255
147 137 128 120 114 111 110 110 110 110 109 110 112 116 123 130 137 144 150 156 164 175 188 203 219 234 248 255 255 255 255 255
155 147 139 132 128 127 126 126 125 124 123 123 125 130 136 143 151 157 163 169 177 186 198 212 227 241 253 255 255 255 255 255
165 157 151 146 144 143 143 142 141 139 138 138 140 145 152 159 166 172 178 184 191 199 210 223 237 250 255 255 255 255 255 255
175 168 163 160 159 159 160 159 158 156 155 156 159 164 170 176 182 188 193 199 205 214 224 236 249 255 255 255 255 255 255 255
186 179 175 174 174 176 177 177 176 174 174 175 178 183 188 194 199 204 209 214 220 228 238 250 255 255 255 255 255 255 255 255
196 191 188 187 189 191 193 194 194 193 193 194 196 200 205 210 215 220 224 229 235 243 253 255 255 255 255 255 255 255 255 255
208 203 200 201 204 207 210 212 212 211 211 210 212 215 219 224 229 235 240 245 250 255 255 255 255 255 255 255 255 255 255 255
221 216 214 215 218 222 226 228 229 228 227 225 224 226 229 235 242 249 255 255 255 255 255 255 255 255 255 255 255 255 255 255
235 230 229 230 233 238 242 244 245 244 241 237 234 234 238 245 254 255 255 255 255 255 255 255 255 255 255 255 255 255 255 255
