P2
32 32
255
54 63 92 121 152 187 213 215 217 218 199 158 114 100 120 148 168 176 153 106 89 108 123 117 92 72 85 114 123 113 96 73
62 70 89 111 136 165 182 185 197 201 182 148 111 92 99 119 142 155 154 140 132 130 122 99 59 31 47 86 108 106 94 75
81 81 86 97 116 138 150 161 182 181 162 138 118 105 102 109 123 139 149 149 142 131 119 97 56 32 51 88 105 104 97 88
85 77 75 80 93 111 126 144 156 157 166 150 115 96 97 104 112 124 133 130 122 112 101 93 72 58 73 95 101 100 97 92
79 68 62 64 72 86 103 119 130 162 225 228 159 105 92 98 105 111 115 111 113 114 93 81 79 77 83 92 95 95 93 89
65 56 50 49 55 66 82 97 114 145 196 211 161 110 92 92 97 100 98 95 103 125 112 81 73 77 82 88 92 92 89 79
34 18 21 32 43 55 69 84 97 105 116 127 118 100 90 88 88 87 84 81 90 122 139 103 75 75 82 88 91 89 78 59
1 0 0 9 37 52 66 80 92 100 103 102 99 93 87 82 79 76 72 69 77 112 149 123 82 76 84 90 90 77 53 27
0 0 2 28 47 57 70 83 91 91 101 103 98 91 83 75 69 63 59 58 67 102 145 135 92 80 90 96 92 67 31 8
38 46 55 57 60 71 83 90 100 104 107 103 99 94 83 69 58 51 46 47 58 87 130 152 122 94 98 108 109 89 53 35
106 91 78 76 86 106 121 115 107 107 108 112 119 111 86 63 48 40 36 39 48 67 107 172 195 141 114 123 132 131 120 113
135 121 115 113 117 137 169 176 157 146 153 162 143 100 64 45 34 29 29 33 41 55 91 186 255 232 153 143 151 155 154 149
255 219 170 132 117 130 172 208 211 205 198 163 99 54 37 27 20 17 19 26 37 53 90 189 255 255 199 173 181 198 225 255
255 255 176 116 97 99 125 156 162 149 122 82 46 31 20 10 9 10 12 20 34 54 90 161 244 249 209 198 215 255 255 255
255 255 145 96 80 72 72 76 70 57 43 32 24 15 0 0 0 4 9 17 30 50 78 114 149 173 186 199 220 255 255 255
255 255 126 88 71 59 50 44 37 30 24 17 11 3 0 0 0 1 7 15 28 46 69 96 125 155 181 200 214 238 255 255
255 212 123 83 63 50 42 35 28 21 12 5 2 1 0 0 0 0 4 12 24 41 64 91 122 154 184 205 217 220 235 255
196 168 128 92 65 49 39 33 26 20 13 4 1 0 0 0 0 0 2 7 15 26 41 61 95 138 174 197 211 217 211 204
166 139 127 120 101 77 61 51 40 26 18 10 4 1 0 0 0 0 0 0 0 0 2 18 63 119 160 183 192 196 198 191
155 123 108 114 119 112 101 87 65 39 25 17 9 4 1 0 0 0 0 0 0 0 0 0 31 90 132 151 151 147 156 168
137 113 89 82 87 97 101 89 65 44 35 24 15 9 4 0 0 0 0 0 0 0 0 0 5 43 68 68 53 57 92 131
116 100 80 68 69 86 98 83 60 52 37 22 20 15 8 3 0 0 0 0 0 0 0 0 2 6 0 0 0 0 37 103
103 88 74 64 69 99 121 91 67 57 20 15 29 22 19 13 3 0 0 0 0 0 0 10 24 10 0 0 0 0 27 95
93 79 69 64 74 123 157 105 78 62 26 35 41 39 56 53 30 7 0 0 0 0 6 23 43 42 0 0 0 0 54 95
82 72 66 66 77 122 161 116 92 80 62 63 56 80 109 101 74 37 13 6 4 8 18 33 52 64 42 9 6 36 77 88
81 74 67 71 81 109 142 124 111 104 94 84 85 111 118 99 80 59 38 27 24 27 36 50 66 78 76 68 66 73 79 79
82 76 69 77 92 113 137 139 136 130 120 111 113 119 110 96 85 75 65 57 53 55 62 74 87 95 98 95 90 83 76 76
72 69 71 85 105 129 151 162 165 160 154 150 146 136 126 119 113 106 98 90 86 87 93 102 111 116 116 110 98 86 77 73
67 66 75 94 120 149 173 189 195 194 202 204 181 159 149 145 143 137 131 125 120 120 124 130 135 137 134 123 109 93 79 72
70 69 80 104 136 167 195 215 223 220 228 224 192 170 164 164 165 162 154 149 148 148 149 152 153 154 149 135 118 100 83 75
73 75 88 112 148 182 213 231 241 238 224 204 184 173 169 172 178 178 162 143 142 149 155 158 157 157 155 144 125 106 91 81
67 72 95 122 155 192 224 234 238 242 227 201 172 155 158 171 182 186 158 111 99 120 140 144 136 130 137 143 132 115 98 81
