P2
32 32
255
174 123 0 0 0 0 0 0 0 0 0 0 0 0 0 0 0 0 0 0 0 0 0 0 0 0 0 0 0 0 0 0
128 0 0 0 0 0 0 0 0 0 0 0 0 0 0 0 0 0 0 0 0 0 0 0 148 195 219 0 0 0 0 0
0 0 0 0 0 0 0 0 0 0 0 0 0 0 0 0 0 0 0 0 0 0 0 0 162 202 190 0 0 0 0 0
0 0 0 0 0 0 0 0 0 0 0 0 0 0 0 0 0 0 0 0 0 0 0 0 0 152 0 0 0 0 0 0
0 92 126 118 0 0 0 0 0 0 0 0 0 0 0 0 0 0 0 0 0 0 0 0 0 0 0 0 0 0 0 0
110 166 196 202 170 104 0 0 0 0 0 0 0 0 0 0 0 0 0 0 0 0 0 0 0 0 0 0 0 0 0 0
211 102 123 199 239 169 0 0 0 0 0 0 0 0 0 0 0 0 0 0 0 0 0 0 0 0 0 0 0 0 0 146
0 0 0 0 228 185 107 0 0 0 0 0 0 0 0 0 0 0 0 0 0 0 0 0 0 0 0 0 0 0 179 167
0 0 0 173 216 155 0 0 0 0 0 0 0 0 0 0 91 121 146 153 98 0 0 0 0 0 0 0 0 100 191 0
236 225 171 156 141 0 0 0 0 0 0 0 0 0 0 0 150 194 221 217 153 0 0 0 0 0 0 0 0 0 182 222
0 0 0 0 0 0 0 0 0 0 0 0 0 0 0 122 208 250 228 244 208 99 0 0 0 0 0 0 0 0 0 0
0 0 0 0 0 0 0 0 0 0 0 0 0 0 116 229 215 181 177 207 251 168 0 0 0 0 0 0 0 0 0 0
0 0 0 0 0 0 0 0 0 0 0 0 0 172 231 166 116 94 109 160 233 179 0 0 0 0 0 0 0 0 0 0
0 0 0 0 0 0 0 0 0 0 0 0 222 195 114 0 0 0 0 113 210 174 0 0 0 0 0 0 0 0 0 0
0 0 0 0 0 0 0 0 0 158 239 201 145 0 0 0 0 0 0 90 188 196 0 0 0 0 0 0 0 0 0 0
0 0 0 0 0 148 197 237 231 187 143 93 0 0 0 0 0 0 0 0 170 224 91 0 0 0 0 0 0 0 0 0
0 0 0 0 122 196 250 216 174 126 0 0 0 0 0 0 0 0 0 0 144 252 117 0 0 0 0 0 0 0 0 0
0 0 0 0 111 207 245 203 161 118 0 0 0 0 0 0 0 0 0 0 0 160 251 132 0 0 0 0 0 0 0 0
0 0 0 0 0 0 132 190 248 157 100 0 0 0 0 0 0 0 0 0 0 0 0 100 125 0 0 0 0 0 0 0
0 0 0 0 0 0 0 0 111 246 154 94 0 0 0 0 0 0 0 0 0 0 0 0 192 0 0 0 0 0 0 0
0 0 0 0 0 0 0 0 114 235 215 142 0 0 0 0 0 0 0 0 0 0 0 0 0 240 93 95 178 159 0 0
0 0 0 96 0 0 0 0 138 186 233 127 118 0 0 0 0 0 0 0 0 0 0 0 0 0 0 0 0 0 231 0
0 0 0 115 0 0 0 0 100 158 118 0 177 132 110 0 0 0 0 0 0 0 0 0 144 0 0 0 0 0 164 0
0 0 90 116 0 0 0 0 0 131 157 220 255 244 166 181 186 0 0 0 0 0 0 138 241 249 0 0 0 0 173 0
0 0 104 104 0 0 0 0 0 0 129 121 160 0 0 0 0 235 0 0 0 0 97 206 187 118 247 0 0 227 0 0
0 0 102 0 0 0 0 0 0 0 0 0 0 0 0 0 0 146 237 166 147 166 227 196 104 0 0 97 108 0 0 0
0 0 90 0 0 0 0 0 0 0 0 0 0 0 0 0 0 0 110 158 182 170 127 0 0 0 0 0 0 0 0 0
0 0 0 0 0 0 0 0 0 0 0 0 0 0 0 0 0 0 0 0 0 0 0 0 0 0 0 0 0 0 0 0
98 106 0 0 0 0 0 0 0 0 0 0 0 0 0 0 0 0 0 0 0 0 0 0 0 0 0 0 0 0 0 0
0 0 0 0 0 0 0 0 0 0 0 0 0 0 0 0 0 0 0 0 0 0 0 0 0 0 0 0 0 0 0 0
0 0 0 0 0 0 0 0 0 0 0 0 0 0 0 0 0 0 0 0 0 0 0 0 0 0 0 0 0 0 0 0
99 0 0 0 0 0 0 0 0 0 0 0 0 0 0 0 0 0 0 0 0 0 0 0 0 0 0 0 0 0 0 0
