P2
32 32
255
109 117 141 164 187 211 228 230 230 231 218 191 159 148 163 183 198 203 187 152 139 154 166 161 142 125 136 158 165 158 145 126
117 123 139 156 175 195 207 209 217 220 207 183 156 142 147 163 179 189 188 178 172 170 165 147 113 88 102 137 154 152 143 127
132 132 136 145 160 176 185 193 207 206 193 176 161 152 149 154 165 177 184 184 179 171 163 145 111 89 107 138 152 151 146 138
136 129 127 132 142 156 167 180 189 190 196 185 159 145 145 151 157 166 172 170 164 157 149 143 125 113 126 144 149 148 145 142
131 122 117 118 125 137 150 162 171 193 235 237 191 152 141 146 152 157 159 156 158 158 142 133 131 129 134 141 144 144 142 139
119 111 106 105 110 120 133 146 158 181 217 227 193 155 141 142 145 147 146 144 150 166 157 132 126 129 134 138 141 142 139 131
90 73 77 88 99 110 123 135 145 152 160 168 161 147 140 138 138 137 135 133 140 165 177 150 128 128 133 138 141 139 130 114
48 16 23 62 93 108 120 132 141 147 150 149 147 142 137 134 131 128 125 123 130 157 184 165 133 129 135 140 140 129 109 83
40 29 50 84 103 112 123 134 140 141 149 150 146 141 134 128 122 118 114 113 121 149 181 174 141 132 139 145 141 121 87 61
94 102 110 112 115 124 134 140 147 151 153 150 147 143 134 123 113 106 102 103 113 137 171 186 165 143 146 154 155 139 108 92
153 141 130 128 137 152 164 159 153 153 154 157 162 156 136 117 104 96 93 95 104 121 153 200 216 178 159 165 172 171 163 158
174 164 159 158 160 175 198 203 190 182 187 193 180 147 118 101 91 85 85 89 98 110 140 210 255 240 187 180 186 189 187 184
255 232 199 172 161 171 200 225 227 223 218 194 147 110 93 83 76 72 74 82 94 109 140 212 255 255 218 201 206 218 236 255
255 255 203 160 145 147 167 189 194 184 165 133 102 88 75 63 62 63 66 75 90 109 140 193 248 251 225 218 229 255 255 255
255 255 181 145 131 125 125 128 123 112 99 89 80 69 46 28 39 54 62 71 87 106 130 158 184 201 210 219 232 255 255 255
255 255 168 138 124 113 106 100 93 86 80 72 64 54 36 22 31 48 58 69 84 102 122 144 167 188 206 220 228 244 255 255
255 228 165 134 117 106 98 91 84 77 66 55 52 48 41 34 37 46 55 66 80 97 118 141 164 188 208 223 231 232 242 255
216 198 169 141 119 104 95 89 82 76 67 55 49 47 43 39 40 44 50 59 69 82 97 116 144 176 202 218 227 231 227 222
196 177 168 163 148 129 116 107 96 82 73 63 54 49 45 41 40 41 43 43 41 42 50 73 117 162 192 208 214 216 218 213
189 165 154 158 162 157 148 137 119 96 81 72 61 54 48 43 39 35 29 13 0 0 0 28 87 140 172 186 185 183 189 197
175 157 139 133 137 145 148 139 119 100 91 79 69 62 54 47 39 30 12 0 0 0 0 2 56 99 122 122 109 112 141 171
160 148 132 121 123 136 146 134 115 107 93 77 76 70 61 52 44 34 11 0 0 0 0 22 51 57 33 0 0 4 93 150
150 138 127 118 122 147 164 140 121 112 76 70 85 78 75 67 53 42 28 0 0 0 31 63 80 63 0 0 0 0 83 144
142 131 122 118 127 165 190 152 130 116 82 92 97 95 111 108 86 59 46 30 14 33 58 79 99 98 38 0 0 16 110 144
133 125 120 120 129 165 193 160 142 131 116 118 111 131 155 149 127 94 67 58 54 60 73 89 107 118 98 62 57 93 129 138
133 127 121 124 133 155 179 166 157 151 143 135 135 156 162 147 131 114 94 83 80 83 93 106 120 130 128 121 120 126 131 131
133 128 122 129 142 158 175 177 175 171 163 157 158 162 156 144 136 128 119 112 108 110 117 127 137 144 146 144 140 134 129 128
125 123 124 135 152 170 185 193 195 192 188 185 182 175 167 162 158 153 146 140 137 137 142 150 156 160 160 155 146 137 129 126
121 120 127 143 163 184 201 212 216 215 221 222 207 191 184 182 180 176 171 166 163 163 166 171 174 176 173 165 154 142 131 125
123 123 132 151 175 197 216 229 234 233 238 235 214 199 195 195 195 193 187 184 183 183 184 186 187 188 184 174 162 148 134 128
126 127 138 157 183 207 228 240 246 244 235 222 209 201 198 201 204 205 193 180 179 184 189 191 190 190 189 181 167 153 140 132
121 125 144 164 188 214 235 241 244 247 237 220 201 188 191 199 207 210 191 156 147 163 178 181 175 170 176 180 172 159 146 133
