P2
32 32
255
0 0 0 0 9 17 28 43 61 83 116 169 243 255 193 139 99 96 77 62 42 22 9 0 0 0 0 0 9 22 41 70
0 0 0 10 20 18 31 48 66 88 123 176 246 212 164 117 80 76 53 36 21 9 0 0 0 0 0 0 0 10 23 44
0 0 0 0 10 9 19 33 48 70 101 144 195 160 124 89 59 56 54 35 20 9 0 0 0 0 0 0 0 10 23 24
0 0 0 0 0 0 9 20 34 53 73 106 155 127 93 63 39 38 37 37 38 22 10 0 0 0 0 0 10 23 23 10
0 0 0 0 0 0 0 10 21 33 41 59 102 90 66 41 23 22 22 22 22 39 24 11 0 0 0 10 23 23 10 0
0 0 0 0 0 0 0 0 10 20 29 43 75 62 42 24 10 10 10 10 10 21 39 24 11 0 11 24 24 10 0 0
0 0 0 0 0 0 0 0 10 23 39 58 60 41 24 11 0 0 0 0 0 9 20 40 25 11 24 24 11 0 0 0
0 0 0 0 0 0 0 0 0 10 23 41 41 23 11 0 0 0 0 0 0 0 9 21 43 25 24 11 0 0 0 0
0 0 0 0 0 0 0 0 11 24 41 40 23 10 0 0 0 0 0 0 0 0 0 9 24 24 11 0 0 0 0 0
0 0 0 0 0 0 0 11 23 40 40 40 23 10 0 0 0 0 0 0 0 0 0 9 21 42 23 10 0 0 0 0
0 0 0 0 0 0 9 22 40 22 22 22 10 0 0 0 0 0 0 0 0 0 0 0 7 20 39 21 9 0 0 0
0 0 0 0 0 9 18 18 19 9 9 8 0 0 0 0 0 0 0 0 0 0 0 0 6 14 34 35 19 8 0 0
6 7 8 9 10 9 8 7 7 0 0 0 0 0 0 0 0 0 0 0 0 0 0 0 6 13 29 50 31 16 7 6
13 13 18 22 10 0 0 0 0 0 0 0 0 0 0 0 0 0 0 0 0 0 0 0 6 14 28 45 43 24 13 13
24 24 20 10 0 0 0 0 0 0 0 0 0 0 0 0 0 0 0 0 0 0 0 0 9 18 30 45 42 37 24 24
24 13 9 0 0 0 0 0 0 0 0 0 0 0 0 0 0 15 0 0 0 0 0 0 0 8 17 29 27 25 37 37
13 7 0 0 0 0 0 0 0 0 0 0 0 15 0 0 0 15 0 0 0 0 0 0 0 8 17 16 15 15 25 37
16 8 0 0 0 0 0 0 0 0 0 0 15 33 0 0 0 0 15 0 0 0 0 0 0 0 8 7 7 7 16 28
33 20 9 0 0 0 0 0 0 0 0 0 0 15 0 0 0 0 0 0 0 0 0 0 0 0 0 0 0 0 7 17
34 21 10 0 0 0 0 0 0 0 0 0 0 0 15 0 0 0 0 0 0 0 0 0 0 0 0 0 0 0 0 8
20 10 0 0 0 10 0 0 0 0 0 0 0 0 0 15 0 0 0 0 0 0 0 0 0 0 0 0 0 0 0 0
10 0 0 0 0 0 0 0 0 0 0 0 0 0 0 0 0 0 0 0 0 0 0 0 0 0 0 0 0 0 0 0
10 0 0 0 0 0 0 0 0 0 0 0 0 0 0 0 0 0 0 0 0 0 0 0 0 0 0 0 0 0 0 0
0 0 0 0 0 0 8 0 0 0 0 0 0 0 0 0 0 0 0 0 0 0 0 0 0 0 0 0 0 0 0 0
0 0 0 0 0 0 8 10 0 0 0 0 0 0 0 0 0 0 0 0 0 0 0 0 0 0 0 0 0 0 0 0
0 0 0 0 0 10 20 21 10 0 0 0 0 0 0 0 0 0 0 0 0 0 0 0 0 0 0 0 0 0 0 11
0 0 0 0 0 10 20 36 20 9 0 0 0 10 10 10 0 0 0 0 0 0 0 0 0 0 0 0 0 0 11 25
0 0 0 0 10 21 34 52 33 19 8 9 9 20 21 22 10 0 0 0 0 0 0 0 0 10 10 0 0 11 25 45
0 0 0 0 10 19 32 47 46 29 16 16 17 33 35 35 20 9 0 0 0 0 0 9 9 20 20 9 10 23 44 70
0 0 0 10 20 32 46 62 60 42 26 26 30 50 51 51 33 19 9 9 9 9 9 19 19 34 35 20 22 41 67 100
0 0 11 22 35 48 62 79 76 56 41 44 48 72 72 72 49 31 19 20 20 19 19 33 34 53 53 35 37 62 95 133
0 0 0 9 19 30 41 57 77 76 59 65 72 104 103 98 69 47 33 39 41 38 36 55 56 83 81 55 57 87 126 174
